!!!!SEGMENT: pl-sa--600-a-ix-80--002_anonim--preludium.krn
!!!cenid: 18xx:667
!!!COM: Anonim
!!!COM-rism: pe30004985
!!!CDT:
!!!CNT:
!!!OTL: Preludium
!!!PDT:
!!!AGN: Secular
!!!SMS-siglum: PL-SA
!!!SMS-shelfmark: 600/A IX 80
!!!NIFC-rismID: 1001065559
!!!URL-scan: http://bc.bdsandomierz.pl/dlibra/publication/1408/edition/1376/content
!!!ONB-nifc: Str. 2, s. 1
!!!SMS-variant:
!!!SMS-altvar:
**kern	**kern
*part2	*part1
*staff2	*staff1
*I"Piano	*I"Piano
*group1	*group1
*clefF4	*clefG2
*k[]	*k[]
*M3/8	*M3/8
=1	=1
4.r	16a\LL
.	16g\
.	16f#X\
.	16g\
.	16fn\
.	16d\JJ
=2	=2
8r	8B/
8GG/L 8D 8F	8r
8GG/J 8D 8F	8r
=3	=3
*rep	*
!LO:TX:a:t=P:problem:prawdopodobnie błędna repetycja	!
8r	16a/LL
.	16g/
8GG/L 8D 8F	16f#X/
.	16a/
8GG/J 8D 8F	16g/
.	16e/JJ
*Xrep	*
=4	=4
8r	8c/
8GG/L 8C 8E	8r
8GG/J 8C 8E	8r
=5	=5
4.r	16dd\LL
.	16cc\
.	16b\
.	16dd\
.	16cc\
.	16a\JJ
=6	=6
8r	8f#X/
8GG/L 8C 8D	8r
8GG/J 8C 8D	8r
=7	=7
4.r	16ee\LL
.	16dd\
.	16cc#X\
.	16ee\
.	16dd\
.	16b\JJ
=8	=8
16r	8g/
16GG\LL	.
16BB\	8r
16D\	.
16G\	8r
16F#X\JJ	.
=9	=9
8G\	16r
.	16g\LL
8r	16b\
.	16dd\
8r	16gg\
.	16ff#X\JJ
=10	=10
16r	8gg\
16G\LL	.
16B\	8r
16d\	.
16g\	8r
16f#X\JJ	.
=11	=11
!	!LO:N:vis=8
8g\	32r
!	!LO:N:vis=8
.	32r
.	16gg\LL
8r	16bb\
.	16ddd\
8r	16ggg\
.	16fff#X\JJ
=12	=12
8r	4.ggg;\
4G\ 4B 4d	.
==	==
*-	*-
!!!system-decoration: [(g1)]
!!!ENC:Anna Matuszewska
!!!END:2020-11-24
!!!ENC: Andrzej Kubiczek
!!!END: 2020-06-20
